X: 27468
T: Molly Myers'
R: jig
M: 6/8
K: Amajor
a2f|:ecA ~c3|ecA BcB|Ace fec|Bc/d/e fec|
ecA ~c3|ecA BcB|Ace ~f3|1 ABA A2f:|2 ABA A2e||
|:c2f ece|AcA cBA|cee ece|fdB BAB|
c2f ece|AcA cBA|f/g/af ece|1 ABA A2e:|2 ABA A2f||

